static/name3.svg

<svg fill="none" height="110" viewBox="0 0 881 110" width="881" xmlns="http://www.w3.org/2000/svg"><g stroke="#fff" stroke-width="2"><path d="m1 107.56v-102.24h43.344c4.704 0 9.024 1.008 12.96 3.024 4.032 1.92 7.488 4.512 10.368 7.776 2.88 3.168 5.136 6.816 6.768 10.944 1.632 4.032 2.448 8.112 2.448 12.24 0 4.32-.768 8.544-2.304 12.672-1.536 4.032-3.696 7.632-6.48 10.8s-6.144 5.712-10.08 7.632-8.256 2.88-12.96 2.88h-24.192v34.272zm19.872-51.696h23.04c3.648 0 6.672-1.488 9.072-4.464 2.496-2.976 3.744-7.008 3.744-12.096 0-2.592-.384-4.896-1.152-6.912-.768-2.112-1.776-3.888-3.024-5.328s-2.736-2.496-4.464-3.168c-1.632-.768-3.312-1.152-5.04-1.152h-22.176z"/><path d="m122.429 109c-6.144 0-11.664-1.056-16.56-3.168s-9.0719-4.944-12.5279-8.496c-3.36-3.648-5.952-7.824-7.776-12.528s-2.736-9.648-2.736-14.832c0-5.28.912-10.272 2.736-14.976s4.416-8.832 7.776-12.384c3.456-3.648 7.6319-6.528 12.5279-8.64s10.416-3.168 16.56-3.168 11.616 1.056 16.416 3.168c4.896 2.112 9.024 4.992 12.384 8.64 3.456 3.552 6.096 7.68 7.92 12.384s2.736 9.696 2.736 14.976c0 5.184-.912 10.128-2.736 14.832s-4.416 8.88-7.776 12.528c-3.36 3.552-7.488 6.384-12.384 8.496s-10.416 3.168-16.56 3.168zm-19.728-39.024c0 3.36.48 6.432 1.44 9.216 1.056 2.688 2.448 5.04 4.176 7.056 1.824 2.016 3.936 3.6 6.336 4.752 2.4 1.056 4.992 1.584 7.776 1.584s5.376-.528 7.776-1.584c2.4-1.152 4.464-2.736 6.192-4.752 1.824-2.016 3.216-4.416 4.176-7.2 1.056-2.784 1.584-5.856 1.584-9.216 0-3.264-.528-6.288-1.584-9.072-.96-2.784-2.352-5.184-4.176-7.2-1.728-2.016-3.792-3.552-6.192-4.608-2.4-1.152-4.992-1.728-7.776-1.728s-5.376.576-7.776 1.728-4.512 2.736-6.336 4.752c-1.728 2.016-3.12 4.416-4.176 7.2-.96 2.784-1.44 5.808-1.44 9.072z"/><path d="m219.837 48.808c-5.856.096-11.088 1.248-15.696 3.456-4.608 2.112-7.92 5.328-9.936 9.648v45.648h-19.296v-75.456h17.712v16.128c1.344-2.592 2.928-4.896 4.752-6.912 1.824-2.112 3.792-3.936 5.904-5.472s4.224-2.688 6.336-3.456c2.208-.864 4.32-1.296 6.336-1.296h2.304c.576 0 1.104.048 1.584.144z"/><path d="m275.813 103.672c-2.592 1.152-5.76 2.304-9.504 3.456s-7.68 1.728-11.808 1.728c-2.688 0-5.232-.336-7.632-1.008-2.304-.672-4.368-1.728-6.192-3.168-1.728-1.536-3.12-3.456-4.176-5.76-1.056-2.4-1.584-5.28-1.584-8.64v-43.344h-9.936v-14.832h9.936v-24.48h19.296v24.48h15.84v14.832h-15.84v36.864c0 2.688.672 4.608 2.016 5.76 1.44 1.056 3.168 1.584 5.184 1.584s3.984-.336 5.904-1.008 3.456-1.248 4.608-1.728z"/><path d="m290.47 107.56v-56.736h-9.936v-14.688h9.936v-4.608c0-9.408 2.256-16.848 6.768-22.32s10.656-8.208 18.432-8.208c6.144 0 12.336 1.488 18.576 4.46399l-3.888 14.54401c-1.44-.768-3.168-1.392-5.184-1.872-1.92-.576-3.696-.864-5.328-.864-6.72 0-10.08 4.512-10.08 13.536v5.328h18.432v14.688h-18.432v56.736z"/><path d="m370.21 109c-6.144 0-11.664-1.056-16.56-3.168s-9.072-4.944-12.528-8.496c-3.36-3.648-5.952-7.824-7.776-12.528s-2.736-9.648-2.736-14.832c0-5.28.912-10.272 2.736-14.976s4.416-8.832 7.776-12.384c3.456-3.648 7.632-6.528 12.528-8.64s10.416-3.168 16.56-3.168 11.616 1.056 16.416 3.168c4.896 2.112 9.024 4.992 12.384 8.64 3.456 3.552 6.096 7.68 7.92 12.384s2.736 9.696 2.736 14.976c0 5.184-.912 10.128-2.736 14.832s-4.416 8.88-7.776 12.528c-3.36 3.552-7.488 6.384-12.384 8.496s-10.416 3.168-16.56 3.168zm-19.728-39.024c0 3.36.48 6.432 1.44 9.216 1.056 2.688 2.448 5.04 4.176 7.056 1.824 2.016 3.936 3.6 6.336 4.752 2.4 1.056 4.992 1.584 7.776 1.584s5.376-.528 7.776-1.584c2.4-1.152 4.464-2.736 6.192-4.752 1.824-2.016 3.216-4.416 4.176-7.2 1.056-2.784 1.584-5.856 1.584-9.216 0-3.264-.528-6.288-1.584-9.072-.96-2.784-2.352-5.184-4.176-7.2-1.728-2.016-3.792-3.552-6.192-4.608-2.4-1.152-4.992-1.728-7.776-1.728s-5.376.576-7.776 1.728-4.512 2.736-6.336 4.752c-1.728 2.016-3.12 4.416-4.176 7.2-.96 2.784-1.44 5.808-1.44 9.072z"/><path d="m422.547 2.44h19.295v80.928c0 2.784.672 4.944 2.016 6.48s3.265 2.304 5.76 2.304c1.153 0 2.4-.192 3.744-.576 1.44-.384 2.784-.864 4.033-1.44l2.592 14.688c-2.592 1.248-5.617 2.208-9.073 2.88s-6.575 1.008-9.359 1.008c-6.048 0-10.752-1.584-14.112-4.752-3.264-3.264-4.896-7.872-4.896-13.824z"/><path d="m468.394 107.56v-75.456h19.296v75.456zm0-85.968v-19.152h19.296v19.152z"/><path d="m539.945 109c-6.144 0-11.664-1.056-16.56-3.168s-9.072-4.944-12.528-8.496c-3.36-3.648-5.952-7.824-7.776-12.528s-2.736-9.648-2.736-14.832c0-5.28.912-10.272 2.736-14.976s4.416-8.832 7.776-12.384c3.456-3.648 7.632-6.528 12.528-8.64s10.416-3.168 16.56-3.168 11.616 1.056 16.416 3.168c4.896 2.112 9.024 4.992 12.384 8.64 3.456 3.552 6.096 7.68 7.92 12.384s2.736 9.696 2.736 14.976c0 5.184-.912 10.128-2.736 14.832s-4.416 8.88-7.776 12.528c-3.36 3.552-7.488 6.384-12.384 8.496s-10.416 3.168-16.56 3.168zm-19.728-39.024c0 3.36.48 6.432 1.44 9.216 1.056 2.688 2.448 5.04 4.176 7.056 1.824 2.016 3.936 3.6 6.336 4.752 2.4 1.056 4.992 1.584 7.776 1.584s5.376-.528 7.776-1.584c2.4-1.152 4.464-2.736 6.192-4.752 1.824-2.016 3.216-4.416 4.176-7.2 1.056-2.784 1.584-5.856 1.584-9.216 0-3.264-.528-6.288-1.584-9.072-.96-2.784-2.352-5.184-4.176-7.2-1.728-2.016-3.792-3.552-6.192-4.608-2.4-1.152-4.992-1.728-7.776-1.728s-5.376.576-7.776 1.728-4.512 2.736-6.336 4.752c-1.728 2.016-3.12 4.416-4.176 7.2-.96 2.784-1.44 5.808-1.44 9.072z"/><path d="m689.803 32.104c-.672-.672-1.92-1.584-3.744-2.736-1.728-1.152-3.888-2.256-6.48-3.312-2.496-1.152-5.232-2.112-8.208-2.88s-6-1.152-9.072-1.152c-5.472 0-9.552 1.008-12.24 3.024s-4.032 4.848-4.032 8.496c0 2.112.48 3.888 1.44 5.328 1.056 1.344 2.544 2.544 4.464 3.6s4.32 2.016 7.2 2.88c2.976.864 6.384 1.776 10.224 2.736 4.992 1.344 9.504 2.784 13.536 4.32 4.128 1.536 7.584 3.456 10.368 5.76 2.88 2.304 5.088 5.088 6.624 8.352 1.536 3.168 2.304 7.104 2.304 11.808 0 5.472-1.056 10.176-3.168 14.112-2.016 3.84-4.8 6.96-8.352 9.36-3.456 2.4-7.488 4.176-12.096 5.328-4.512 1.056-9.264 1.584-14.256 1.584-7.68 0-15.264-1.152-22.752-3.456s-14.208-5.568-20.16-9.792l8.784-17.136c.864.864 2.4 2.016 4.608 3.456 2.304 1.344 4.992 2.736 8.064 4.176 3.072 1.344 6.48 2.496 10.224 3.456s7.584 1.44 11.52 1.44c10.944 0 16.416-3.504 16.416-10.512 0-2.208-.624-4.08-1.872-5.616s-3.024-2.88-5.328-4.032-5.088-2.208-8.352-3.168-6.912-2.016-10.944-3.168c-4.896-1.344-9.168-2.784-12.816-4.32-3.552-1.632-6.528-3.504-8.928-5.616-2.4-2.208-4.224-4.704-5.472-7.488-1.152-2.88-1.728-6.288-1.728-10.224 0-5.184.96-9.792 2.88-13.824s4.56-7.392 7.92-10.08c3.456-2.688 7.44-4.70401 11.952-6.04801 4.512-1.43999 9.36-2.15999 14.544-2.15999 7.2 0 13.824 1.152 19.872 3.456 6.048 2.208 11.328 4.848 15.84 7.92z"/><path d="m715.331 107.56v-75.456h19.296v75.456zm0-85.968v-19.152h19.296v19.152z"/><path d="m797.25 103.672c-2.592 1.152-5.76 2.304-9.504 3.456s-7.68 1.728-11.808 1.728c-2.688 0-5.232-.336-7.632-1.008-2.304-.672-4.368-1.728-6.192-3.168-1.728-1.536-3.12-3.456-4.176-5.76-1.056-2.4-1.584-5.28-1.584-8.64v-43.344h-9.936v-14.832h9.936v-24.48h19.296v24.48h15.84v14.832h-15.84v36.864c0 2.688.672 4.608 2.016 5.76 1.44 1.056 3.168 1.584 5.184 1.584s3.984-.336 5.904-1.008 3.456-1.248 4.608-1.728z"/><path d="m840.464 109c-6.048 0-11.52-1.008-16.416-3.024-4.896-2.112-9.072-4.944-12.528-8.496s-6.144-7.68-8.064-12.384c-1.824-4.704-2.736-9.648-2.736-14.832 0-5.376.912-10.416 2.736-15.12 1.824-4.8 4.464-8.976 7.92-12.528 3.456-3.648 7.632-6.528 12.528-8.64 4.992-2.112 10.56-3.168 16.704-3.168s11.616 1.056 16.416 3.168c4.896 2.112 9.024 4.944 12.384 8.496 3.456 3.552 6.048 7.68 7.776 12.384 1.824 4.704 2.736 9.6 2.736 14.688 0 1.248-.048 2.448-.144 3.6 0 1.152-.096 2.112-.288 2.88h-58.32c.288 2.976 1.008 5.616 2.16 7.92s2.64 4.272 4.464 5.904 3.888 2.88 6.192 3.744 4.704 1.296 7.2 1.296c3.84 0 7.44-.912 10.8-2.736 3.456-1.92 5.808-4.416 7.056-7.488l16.56 4.608c-2.784 5.76-7.248 10.512-13.392 14.256-6.048 3.648-13.296 5.472-21.744 5.472zm19.584-45.504c-.48-5.664-2.592-10.176-6.336-13.536-3.648-3.456-8.112-5.184-13.392-5.184-2.592 0-5.04.48-7.344 1.44-2.208.864-4.176 2.112-5.904 3.744s-3.168 3.6-4.32 5.904c-1.056 2.304-1.68 4.848-1.872 7.632z"/></g></svg>

<svg width="881" height="110" viewBox="0 0 881 110" fill="none" xmlns="http://www.w3.org/2000/svg">
<path d="M1 107.56V5.32H44.344C49.048 5.32 53.368 6.328 57.304 8.344C61.336 10.264 64.792 12.856 67.672 16.12C70.552 19.288 72.808 22.936 74.44 27.064C76.072 31.096 76.888 35.176 76.888 39.304C76.888 43.624 76.12 47.848 74.584 51.976C73.048 56.008 70.888 59.608 68.104 62.776C65.32 65.944 61.96 68.488 58.024 70.408C54.088 72.328 49.768 73.288 45.064 73.288H20.872V107.56H1ZM20.872 55.864H43.912C47.56 55.864 50.584 54.376 52.984 51.4C55.48 48.424 56.728 44.392 56.728 39.304C56.728 36.712 56.344 34.408 55.576 32.392C54.808 30.28 53.8 28.504 52.552 27.064C51.304 25.624 49.816 24.568 48.088 23.896C46.456 23.128 44.776 22.744 43.048 22.744H20.872V55.864Z" stroke="white" stroke-width="2"/>
<path d="M122.429 109C116.285 109 110.765 107.944 105.869 105.832C100.973 103.72 96.7971 100.888 93.3411 97.336C89.9811 93.688 87.3891 89.512 85.5651 84.808C83.7411 80.104 82.8291 75.16 82.8291 69.976C82.8291 64.696 83.7411 59.704 85.5651 55C87.3891 50.296 89.9811 46.168 93.3411 42.616C96.7971 38.968 100.973 36.088 105.869 33.976C110.765 31.864 116.285 30.808 122.429 30.808C128.573 30.808 134.045 31.864 138.845 33.976C143.741 36.088 147.869 38.968 151.229 42.616C154.685 46.168 157.325 50.296 159.149 55C160.973 59.704 161.885 64.696 161.885 69.976C161.885 75.16 160.973 80.104 159.149 84.808C157.325 89.512 154.733 93.688 151.373 97.336C148.013 100.888 143.885 103.72 138.989 105.832C134.093 107.944 128.573 109 122.429 109ZM102.701 69.976C102.701 73.336 103.181 76.408 104.141 79.192C105.197 81.88 106.589 84.232 108.317 86.248C110.141 88.264 112.253 89.848 114.653 91C117.053 92.056 119.645 92.584 122.429 92.584C125.213 92.584 127.805 92.056 130.205 91C132.605 89.848 134.669 88.264 136.397 86.248C138.221 84.232 139.613 81.832 140.573 79.048C141.629 76.264 142.157 73.192 142.157 69.832C142.157 66.568 141.629 63.544 140.573 60.76C139.613 57.976 138.221 55.576 136.397 53.56C134.669 51.544 132.605 50.008 130.205 48.952C127.805 47.8 125.213 47.224 122.429 47.224C119.645 47.224 117.053 47.8 114.653 48.952C112.253 50.104 110.141 51.688 108.317 53.704C106.589 55.72 105.197 58.12 104.141 60.904C103.181 63.688 102.701 66.712 102.701 69.976Z" stroke="white" stroke-width="2"/>
<path d="M219.837 48.808C213.981 48.904 208.749 50.056 204.141 52.264C199.533 54.376 196.221 57.592 194.205 61.912V107.56H174.909V32.104H192.621V48.232C193.965 45.64 195.549 43.336 197.373 41.32C199.197 39.208 201.165 37.384 203.277 35.848C205.389 34.312 207.501 33.16 209.613 32.392C211.821 31.528 213.933 31.096 215.949 31.096C217.005 31.096 217.773 31.096 218.253 31.096C218.829 31.096 219.357 31.144 219.837 31.24V48.808Z" stroke="white" stroke-width="2"/>
<path d="M275.813 103.672C273.221 104.824 270.053 105.976 266.309 107.128C262.565 108.28 258.629 108.856 254.501 108.856C251.813 108.856 249.269 108.52 246.869 107.848C244.565 107.176 242.501 106.12 240.677 104.68C238.949 103.144 237.557 101.224 236.501 98.92C235.445 96.52 234.917 93.64 234.917 90.28V46.936H224.981V32.104H234.917V7.624H254.213V32.104H270.053V46.936H254.213V83.8C254.213 86.488 254.885 88.408 256.229 89.56C257.669 90.616 259.397 91.144 261.413 91.144C263.429 91.144 265.397 90.808 267.317 90.136C269.237 89.464 270.773 88.888 271.925 88.408L275.813 103.672Z" stroke="white" stroke-width="2"/>
<path d="M290.47 107.56V50.824H280.534V36.136H290.47V31.528C290.47 22.12 292.726 14.68 297.238 9.208C301.75 3.736 307.894 1 315.67 1C321.814 1 328.006 2.488 334.246 5.46399L330.358 20.008C328.918 19.24 327.19 18.616 325.174 18.136C323.254 17.56 321.478 17.272 319.846 17.272C313.126 17.272 309.766 21.784 309.766 30.808V36.136H328.198V50.824H309.766V107.56H290.47Z" stroke="white" stroke-width="2"/>
<path d="M370.21 109C364.066 109 358.546 107.944 353.65 105.832C348.754 103.72 344.578 100.888 341.122 97.336C337.762 93.688 335.17 89.512 333.346 84.808C331.522 80.104 330.61 75.16 330.61 69.976C330.61 64.696 331.522 59.704 333.346 55C335.17 50.296 337.762 46.168 341.122 42.616C344.578 38.968 348.754 36.088 353.65 33.976C358.546 31.864 364.066 30.808 370.21 30.808C376.354 30.808 381.826 31.864 386.626 33.976C391.522 36.088 395.65 38.968 399.01 42.616C402.466 46.168 405.106 50.296 406.93 55C408.754 59.704 409.666 64.696 409.666 69.976C409.666 75.16 408.754 80.104 406.93 84.808C405.106 89.512 402.514 93.688 399.154 97.336C395.794 100.888 391.666 103.72 386.77 105.832C381.874 107.944 376.354 109 370.21 109ZM350.482 69.976C350.482 73.336 350.962 76.408 351.922 79.192C352.978 81.88 354.37 84.232 356.098 86.248C357.922 88.264 360.034 89.848 362.434 91C364.834 92.056 367.426 92.584 370.21 92.584C372.994 92.584 375.586 92.056 377.986 91C380.386 89.848 382.45 88.264 384.178 86.248C386.002 84.232 387.394 81.832 388.354 79.048C389.41 76.264 389.938 73.192 389.938 69.832C389.938 66.568 389.41 63.544 388.354 60.76C387.394 57.976 386.002 55.576 384.178 53.56C382.45 51.544 380.386 50.008 377.986 48.952C375.586 47.8 372.994 47.224 370.21 47.224C367.426 47.224 364.834 47.8 362.434 48.952C360.034 50.104 357.922 51.688 356.098 53.704C354.37 55.72 352.978 58.12 351.922 60.904C350.962 63.688 350.482 66.712 350.482 69.976Z" stroke="white" stroke-width="2"/>
<path d="M422.547 2.44H441.842V83.368C441.842 86.152 442.514 88.312 443.858 89.848C445.202 91.384 447.123 92.152 449.618 92.152C450.771 92.152 452.018 91.96 453.362 91.576C454.802 91.192 456.146 90.712 457.395 90.136L459.987 104.824C457.395 106.072 454.37 107.032 450.914 107.704C447.458 108.376 444.339 108.712 441.555 108.712C435.507 108.712 430.803 107.128 427.443 103.96C424.179 100.696 422.547 96.088 422.547 90.136V2.44Z" stroke="white" stroke-width="2"/>
<path d="M468.394 107.56V32.104H487.69V107.56H468.394ZM468.394 21.592V2.44H487.69V21.592H468.394Z" stroke="white" stroke-width="2"/>
<path d="M539.945 109C533.801 109 528.281 107.944 523.385 105.832C518.489 103.72 514.313 100.888 510.857 97.336C507.497 93.688 504.905 89.512 503.081 84.808C501.257 80.104 500.345 75.16 500.345 69.976C500.345 64.696 501.257 59.704 503.081 55C504.905 50.296 507.497 46.168 510.857 42.616C514.313 38.968 518.489 36.088 523.385 33.976C528.281 31.864 533.801 30.808 539.945 30.808C546.089 30.808 551.561 31.864 556.361 33.976C561.257 36.088 565.385 38.968 568.745 42.616C572.201 46.168 574.841 50.296 576.665 55C578.489 59.704 579.401 64.696 579.401 69.976C579.401 75.16 578.489 80.104 576.665 84.808C574.841 89.512 572.249 93.688 568.889 97.336C565.529 100.888 561.401 103.72 556.505 105.832C551.609 107.944 546.089 109 539.945 109ZM520.217 69.976C520.217 73.336 520.697 76.408 521.657 79.192C522.713 81.88 524.105 84.232 525.833 86.248C527.657 88.264 529.769 89.848 532.169 91C534.569 92.056 537.161 92.584 539.945 92.584C542.729 92.584 545.321 92.056 547.721 91C550.121 89.848 552.185 88.264 553.913 86.248C555.737 84.232 557.129 81.832 558.089 79.048C559.145 76.264 559.673 73.192 559.673 69.832C559.673 66.568 559.145 63.544 558.089 60.76C557.129 57.976 555.737 55.576 553.913 53.56C552.185 51.544 550.121 50.008 547.721 48.952C545.321 47.8 542.729 47.224 539.945 47.224C537.161 47.224 534.569 47.8 532.169 48.952C529.769 50.104 527.657 51.688 525.833 53.704C524.105 55.72 522.713 58.12 521.657 60.904C520.697 63.688 520.217 66.712 520.217 69.976Z" stroke="white" stroke-width="2"/>
<path d="M689.803 32.104C689.131 31.432 687.883 30.52 686.059 29.368C684.331 28.216 682.171 27.112 679.579 26.056C677.083 24.904 674.347 23.944 671.371 23.176C668.395 22.408 665.371 22.024 662.299 22.024C656.827 22.024 652.747 23.032 650.059 25.048C647.371 27.064 646.027 29.896 646.027 33.544C646.027 35.656 646.507 37.432 647.467 38.872C648.523 40.216 650.011 41.416 651.931 42.472C653.851 43.528 656.251 44.488 659.131 45.352C662.107 46.216 665.515 47.128 669.355 48.088C674.347 49.432 678.859 50.872 682.891 52.408C687.019 53.944 690.475 55.864 693.259 58.168C696.139 60.472 698.347 63.256 699.883 66.52C701.419 69.688 702.187 73.624 702.187 78.328C702.187 83.8 701.131 88.504 699.019 92.44C697.003 96.28 694.219 99.4 690.667 101.8C687.211 104.2 683.179 105.976 678.571 107.128C674.059 108.184 669.307 108.712 664.315 108.712C656.635 108.712 649.051 107.56 641.563 105.256C634.075 102.952 627.355 99.688 621.403 95.464L630.187 78.328C631.051 79.192 632.587 80.344 634.795 81.784C637.099 83.128 639.787 84.52 642.859 85.96C645.931 87.304 649.339 88.456 653.083 89.416C656.827 90.376 660.667 90.856 664.603 90.856C675.547 90.856 681.019 87.352 681.019 80.344C681.019 78.136 680.395 76.264 679.147 74.728C677.899 73.192 676.123 71.848 673.819 70.696C671.515 69.544 668.731 68.488 665.467 67.528C662.203 66.568 658.555 65.512 654.523 64.36C649.627 63.016 645.355 61.576 641.707 60.04C638.155 58.408 635.179 56.536 632.779 54.424C630.379 52.216 628.555 49.72 627.307 46.936C626.155 44.056 625.579 40.648 625.579 36.712C625.579 31.528 626.539 26.92 628.459 22.888C630.379 18.856 633.019 15.496 636.379 12.808C639.835 10.12 643.819 8.10399 648.331 6.75999C652.843 5.32 657.691 4.6 662.875 4.6C670.075 4.6 676.699 5.752 682.747 8.056C688.795 10.264 694.075 12.904 698.587 15.976L689.803 32.104Z" stroke="white" stroke-width="2"/>
<path d="M715.331 107.56V32.104H734.627V107.56H715.331ZM715.331 21.592V2.44H734.627V21.592H715.331Z" stroke="white" stroke-width="2"/>
<path d="M797.25 103.672C794.658 104.824 791.49 105.976 787.746 107.128C784.002 108.28 780.066 108.856 775.938 108.856C773.25 108.856 770.706 108.52 768.306 107.848C766.002 107.176 763.938 106.12 762.114 104.68C760.386 103.144 758.994 101.224 757.938 98.92C756.882 96.52 756.354 93.64 756.354 90.28V46.936H746.418V32.104H756.354V7.624H775.65V32.104H791.49V46.936H775.65V83.8C775.65 86.488 776.322 88.408 777.666 89.56C779.106 90.616 780.834 91.144 782.85 91.144C784.866 91.144 786.834 90.808 788.754 90.136C790.674 89.464 792.21 88.888 793.362 88.408L797.25 103.672Z" stroke="white" stroke-width="2"/>
<path d="M840.464 109C834.416 109 828.944 107.992 824.048 105.976C819.152 103.864 814.976 101.032 811.52 97.48C808.064 93.928 805.376 89.8 803.456 85.096C801.632 80.392 800.72 75.448 800.72 70.264C800.72 64.888 801.632 59.848 803.456 55.144C805.28 50.344 807.92 46.168 811.376 42.616C814.832 38.968 819.008 36.088 823.904 33.976C828.896 31.864 834.464 30.808 840.608 30.808C846.752 30.808 852.224 31.864 857.024 33.976C861.92 36.088 866.048 38.92 869.408 42.472C872.864 46.024 875.456 50.152 877.184 54.856C879.008 59.56 879.92 64.456 879.92 69.544C879.92 70.792 879.872 71.992 879.776 73.144C879.776 74.296 879.68 75.256 879.488 76.024H821.168C821.456 79 822.176 81.64 823.328 83.944C824.48 86.248 825.968 88.216 827.792 89.848C829.616 91.48 831.68 92.728 833.984 93.592C836.288 94.456 838.688 94.888 841.184 94.888C845.024 94.888 848.624 93.976 851.984 92.152C855.44 90.232 857.792 87.736 859.04 84.664L875.6 89.272C872.816 95.032 868.352 99.784 862.208 103.528C856.16 107.176 848.912 109 840.464 109ZM860.048 63.496C859.568 57.832 857.456 53.32 853.712 49.96C850.064 46.504 845.6 44.776 840.32 44.776C837.728 44.776 835.28 45.256 832.976 46.216C830.768 47.08 828.8 48.328 827.072 49.96C825.344 51.592 823.904 53.56 822.752 55.864C821.696 58.168 821.072 60.712 820.88 63.496H860.048Z" stroke="white" stroke-width="2"/>
</svg>
